assets/icons/clear-night.svg

<?xml version="1.0" encoding="UTF-8" standalone="no"?>
<svg viewBox="0 0 24 24" height="24" width="24" version="1.1" id="svg4" sodipodi:docname="clear-night.svg" inkscape:version="1.1 (ce6663b3b7, 2021-05-25)"
   xmlns:inkscape="http://www.inkscape.org/namespaces/inkscape"
   xmlns:sodipodi="http://sodipodi.sourceforge.net/DTD/sodipodi-0.dtd"
   xmlns="http://www.w3.org/2000/svg"
   xmlns:svg="http://www.w3.org/2000/svg">
   <defs id="defs8" />
   <sodipodi:namedview id="namedview6" pagecolor="#ffffff" bordercolor="#666666" borderopacity="1.0" inkscape:pageshadow="2" inkscape:pageopacity="0.0" inkscape:pagecheckerboard="0" showgrid="true" inkscape:snap-page="true" inkscape:zoom="28" inkscape:cx="13.946429" inkscape:cy="11.5" inkscape:window-width="1920" inkscape:window-height="1043" inkscape:window-x="1920" inkscape:window-y="0" inkscape:window-maximized="1" inkscape:current-layer="svg4">
      <inkscape:grid type="xygrid" id="grid6" />
   </sodipodi:namedview>
   <path style="stroke-width:1;marker:none;fill:#808080;fill-opacity:1" d="m 5.125,8.4325 a 12,12 0 0 0 -0.5,1.28125 11.29,11.29 0 0 0 -1.375,0.08 12,12 0 0 0 1.065,0.87125 c -0.10125,0.31 -0.255,0.825 -0.35,1.3325 a 11.9875,11.9875 0 0 0 1.1575,-0.7425 11.125,11.125 0 0 0 1.16,0.745 v -0.0013 c -0.1025,-0.525 -0.25,-1.0275 -0.34875,-1.33 0.26375,-0.19125 0.69125,-0.5175 1.06625,-0.8725 a 11.995,11.995 0 0 0 -1.37375,-0.08 11.3475,11.3475 0 0 0 -0.5,-1.28375 z" id="path119" />
   <path style="stroke-width:1;marker:none;fill:#808080;fill-opacity:1" d="m 9.50125,3.49375 -0.00125,0.00125 c -0.3,0.64625 -0.53375,1.30375 -0.66625,1.7075 -0.435,0 -1.15,0.01625 -1.83375,0.105 v 0.00125 h 0.00125 c 0.52125,0.4875 1.075,0.9125 1.41875,1.1625 -0.135,0.4125 -0.34,1.1 -0.4675,1.775 h 0.0025 c 0.62375,-0.345 1.19875,-0.74 1.5425,-0.98875 a 15.075,15.075 0 0 0 1.545,0.99125 v -0.00125 a 16.005,16.005 0 0 0 -0.46375,-1.7725 15.08125,15.08125 0 0 0 1.42125,-1.1625 v -0.00125 h -0.0013 a 15.985,15.985 0 0 0 -1.83,-0.10625 15.0875,15.0875 0 0 0 -0.6675,-1.7125 z" id="path2" />
   <path id="path303" style="fill:#808080;fill-rule:evenodd;stroke-width:0.5;stroke-linecap:square;stroke-linejoin:round;fill-opacity:1" d="M 14.705078 4.2929688 A 7.5 7.5 0 0 1 15.410156 5.5898438 C 15.798752 6.5108919 15.999296 7.5003321 16 8.5 C 16 12.642136 12.642136 16 8.5 16 C 7.5045352 15.9923 6.520568 15.786453 5.6054688 15.394531 A 7.5 7.5 0 0 1 4.3007812 14.695312 A 8.5 8.5 0 0 0 4.8378906 16.162109 A 8.5 8.5 0 0 0 5.5585938 16.464844 A 8.5 8.5 0 0 0 6.3046875 16.699219 C 7.0201994 16.894839 7.7582397 16.995959 8.5 17 C 13.19442 17 17 13.19442 17 8.5 C 16.999359 7.7553139 16.90086 7.0139409 16.707031 6.2949219 A 8.5 8.5 0 0 0 16.470703 5.5507812 A 8.5 8.5 0 0 0 16.167969 4.8320312 A 8.5 8.5 0 0 0 14.705078 4.2929688 z M 16.167969 4.8320312 C 16.28003 5.0670747 16.380765 5.3067087 16.470703 5.5507812 C 16.560642 5.7948538 16.639785 6.0433647 16.707031 6.2949219 C 18.765354 7.6895936 19.998721 10.013677 20 12.5 C 20 16.642136 16.642136 20 12.5 20 C 10.015669 19.9937 7.6956507 18.757656 6.3046875 16.699219 C 6.0524967 16.632401 5.803319 16.554457 5.5585938 16.464844 C 5.3138685 16.375231 5.0735958 16.273948 4.8378906 16.162109 C 6.2477425 19.11519 9.2276372 20.996709 12.5 21 C 17.19442 21 21 17.19442 21 12.5 C 21.000044 9.2268547 19.120675 6.2444778 16.167969 4.8320312 z " />
</svg>

<svg height="24" width="24" xmlns="http://www.w3.org/2000/svg"><path style="stroke-width:1;marker:none;fill:gray;fill-opacity:1" d="M5.125 8.432a12 12 0 0 0-.5 1.282 11.29 11.29 0 0 0-1.375.08 12 12 0 0 0 1.065.871c-.101.31-.255.825-.35 1.333a11.988 11.988 0 0 0 1.157-.743 11.125 11.125 0 0 0 1.16.745v-.001a11.778 11.778 0 0 0-.348-1.33c.263-.192.691-.518 1.066-.873a11.995 11.995 0 0 0-1.374-.08 11.348 11.348 0 0 0-.5-1.284zm4.376-4.938-.001.001a16.28 16.28 0 0 0-.666 1.708c-.435 0-1.15.016-1.834.105h.001c.521.488 1.075.913 1.419 1.163-.135.413-.34 1.1-.468 1.775h.003c.624-.345 1.199-.74 1.542-.988a15.075 15.075 0 0 0 1.546.99 16.005 16.005 0 0 0-.464-1.773A15.081 15.081 0 0 0 12 5.313V5.31h-.001a15.985 15.985 0 0 0-1.83-.106A15.088 15.088 0 0 0 9.5 3.493z"/><path style="fill:gray;stroke-width:.5;stroke-linecap:square;stroke-linejoin:round;fill-opacity:1" d="M14.705 4.293a7.5 7.5 0 0 1 .705 1.297A7.5 7.5 0 0 1 8.5 16a7.5 7.5 0 0 1-2.895-.605 7.5 7.5 0 0 1-1.304-.7 8.5 8.5 0 0 0 .537 1.467 8.5 8.5 0 0 0 .72.303 8.5 8.5 0 0 0 .747.234A8.5 8.5 0 0 0 8.5 17a8.5 8.5 0 0 0 8.207-10.705 8.5 8.5 0 0 0-.236-.744 8.5 8.5 0 0 0-.303-.719 8.5 8.5 0 0 0-1.463-.539zm1.463.539a8.49 8.49 0 0 1 .539 1.463A7.5 7.5 0 0 1 20 12.5a7.5 7.5 0 0 1-7.5 7.5 7.5 7.5 0 0 1-6.195-3.3 8.504 8.504 0 0 1-1.467-.538A8.5 8.5 0 0 0 12.5 21a8.5 8.5 0 0 0 3.668-16.168z"/></svg>
